X: 132
T: Xiu hebao
%%abc-version 2.0
%%abcx-abcm2ps-target-version 5.9.1 (29 Sep 2008)
%%abc-creator hum2abc beta
%%abcx-conversion-date 2013/10/02 07:52:29
%%abc-edited-by Helmut Schaffrath
%%humdrum-veritas 260407905
%%humdrum-veritas-data 1731294660
%%continueall 1
%%barnumbers 0
L: 1/8
M: 2/4
K: F
dd2c [I:setbarnb 1]| 
f dc2 | 
c d/ f/ d c | 
dA2G | 
A4 | 
dd2c | 
f dc2 | 
c d/ f/ d c | 
dA2G | 
A2A D | 
F2c d | 
c A c G | 
G F A z | 
A> G F A | 
G> E G D | 
D CD2- | 
D2A D | 
F2c d | 
c A c G | 
G F A z | 
A> G F A | 
G> E G D | 
D CD2- | 
D2z2 |]  



